pro/src/icons/full-add-user.svg

<svg xmlns="http://www.w3.org/2000/svg" width="48" height="48" fill="none"><g id="icon" fill="currentColor"><path d="M15.17 5.39c1.26-1.93 3.39-3.19 5.81-3.19 3.87 0 7 3.23 7 7.24v4.52c0 4-3.13 7.24-7 7.24s-7-3.23-7-7.24V9.44c0-1.5.44-2.89 1.19-4.04zM20.98 36.31c0-5.04 3.24-9.32 7.76-10.89a15.45 15.45 0 0 0-7.76-2.09c-7.2 0-13.22 4.9-14.97 11.52-.08.3 0 .62.21.85 3.66 3.98 8.91 6.49 14.76 6.49.53 0 1.05-.04 1.57-.09-.99-1.7-1.57-3.68-1.57-5.8z"/><path fill-rule="evenodd" d="M32.52 26.81c-5.25 0-9.5 4.25-9.5 9.5s4.25 9.5 9.5 9.5 9.5-4.25 9.5-9.5-4.25-9.5-9.5-9.5m4.53 10.47H33.5v3.69c-.07.47-.48.84-.97.84a.97.97 0 0 1-.97-.97v-3.55h-3.69a.98.98 0 0 1-.84-.97c0-.54.44-.97.97-.97h3.55v-3.68a.98.98 0 0 1 .97-.84c.54 0 .97.44.97.97v3.55h3.69c.47.07.84.48.84.97 0 .54-.44.97-.97.97z" clip-rule="evenodd"/></g></svg>

<svg width="48" height="48" viewBox="0 0 48 48" fill="none" xmlns="http://www.w3.org/2000/svg">
<g id="icon" fill="none">
<path d="M15.17 5.39C16.43 3.46 18.56 2.2 20.98 2.2C24.85 2.2 27.98 5.43 27.98 9.44V13.96C27.98 17.96 24.85 21.2 20.98 21.2C17.11 21.2 13.98 17.97 13.98 13.96V9.44C13.98 7.94 14.42 6.55 15.17 5.4V5.39Z" fill="currentColor"/>
<path d="M20.98 36.31C20.98 31.27 24.22 26.99 28.74 25.42C26.46 24.1 23.81 23.33 20.98 23.33C13.78 23.33 7.75998 28.23 6.00998 34.85C5.92998 35.15 6.00998 35.47 6.21998 35.7C9.87998 39.68 15.13 42.19 20.98 42.19C21.51 42.19 22.03 42.15 22.55 42.1C21.56 40.4 20.98 38.42 20.98 36.3V36.31Z" fill="currentColor"/>
<path fill-rule="evenodd" clip-rule="evenodd" d="M32.52 26.81C27.27 26.81 23.02 31.06 23.02 36.31C23.02 41.56 27.27 45.81 32.52 45.81C37.77 45.81 42.02 41.56 42.02 36.31C42.02 31.06 37.77 26.81 32.52 26.81ZM37.05 37.28H33.5V40.97C33.43 41.44 33.02 41.81 32.53 41.81C31.99 41.81 31.56 41.37 31.56 40.84V37.29H27.87C27.39 37.22 27.03 36.81 27.03 36.32C27.03 35.78 27.47 35.35 28 35.35H31.55V31.67C31.62 31.19 32.03 30.83 32.52 30.83C33.06 30.83 33.49 31.27 33.49 31.8V35.35H37.18C37.65 35.42 38.02 35.83 38.02 36.32C38.02 36.86 37.58 37.29 37.05 37.29V37.28Z" fill="currentColor"/>
</g>
</svg>
